Numix-GalliumOS/16/devices/audio-speakers.svg

<?xml version="1.0" encoding="UTF-8" standalone="no"?>
<svg
   xmlns:dc="http://purl.org/dc/elements/1.1/"
   xmlns:cc="http://creativecommons.org/ns#"
   xmlns:rdf="http://www.w3.org/1999/02/22-rdf-syntax-ns#"
   xmlns:svg="http://www.w3.org/2000/svg"
   xmlns="http://www.w3.org/2000/svg"
   xmlns:sodipodi="http://sodipodi.sourceforge.net/DTD/sodipodi-0.dtd"
   xmlns:inkscape="http://www.inkscape.org/namespaces/inkscape"
   width="16"
   height="16"
   id="svg2"
   version="1.1"
   inkscape:version="0.91 r"
   sodipodi:docname="audio-speakers.svg">
  <metadata
     id="metadata104">
    <rdf:RDF>
      <cc:Work
         rdf:about="">
        <dc:format>image/svg+xml</dc:format>
        <dc:type
           rdf:resource="http://purl.org/dc/dcmitype/StillImage" />
        <dc:title />
      </cc:Work>
    </rdf:RDF>
  </metadata>
  <sodipodi:namedview
     pagecolor="#ffffff"
     bordercolor="#666666"
     borderopacity="1"
     objecttolerance="10"
     gridtolerance="10"
     guidetolerance="10"
     inkscape:pageopacity="0"
     inkscape:pageshadow="2"
     inkscape:window-width="1280"
     inkscape:window-height="998"
     id="namedview102"
     showgrid="true"
     inkscape:zoom="39.333333"
     inkscape:cx="6.4866644"
     inkscape:cy="8.3255948"
     inkscape:window-x="0"
     inkscape:window-y="0"
     inkscape:window-maximized="1"
     inkscape:current-layer="svg2">
    <inkscape:grid
       type="xygrid"
       id="grid3081"
       empspacing="5"
       visible="true"
       enabled="true"
       snapvisiblegridlinesonly="true" />
  </sodipodi:namedview>
  <defs
     id="defs4" />
  <path
     sodipodi:type="arc"
     style="fill:#073642;fill-opacity:1;stroke:none"
     id="path4009-1-7"
     sodipodi:cx="8"
     sodipodi:cy="6"
     sodipodi:rx="3"
     sodipodi:ry="3"
     d="M 11,6 A 3,3 0 1 1 5,6 3,3 0 1 1 11,6 z"
     transform="matrix(0.49984036,0,0,0.49984036,7.7564376,8.7434111)" />
  <path
     sodipodi:type="arc"
     style="fill:#073642;fill-opacity:1;stroke:none"
     id="path4009-2"
     sodipodi:cx="8"
     sodipodi:cy="6"
     sodipodi:rx="3"
     sodipodi:ry="3"
     d="M 11,6 A 3,3 0 1 1 5,6 3,3 0 1 1 11,6 z"
     transform="matrix(0.49984036,0,0,0.49984036,7.7564376,1.233093)" />
  <path
     sodipodi:type="arc"
     style="fill:#073642;fill-opacity:1;stroke:none"
     id="path4009-1"
     sodipodi:cx="8"
     sodipodi:cy="6"
     sodipodi:rx="3"
     sodipodi:ry="3"
     d="M 11,6 A 3,3 0 1 1 5,6 3,3 0 1 1 11,6 z"
     transform="matrix(0.49984036,0,0,0.49984036,0.20799684,8.7434111)" />
  <path
     sodipodi:type="arc"
     style="fill:#073642;fill-opacity:1;stroke:none"
     id="path4009"
     sodipodi:cx="8"
     sodipodi:cy="6"
     sodipodi:rx="3"
     sodipodi:ry="3"
     d="M 11,6 A 3,3 0 1 1 5,6 3,3 0 1 1 11,6 z"
     transform="matrix(0.49984036,0,0,0.49984036,0.20799684,1.233093)" />
  <path
     sodipodi:type="arc"
     style="fill:#073642;fill-opacity:1;stroke:none"
     id="path3906"
     sodipodi:cx="24"
     sodipodi:cy="24"
     sodipodi:rx="16"
     sodipodi:ry="16"
     d="M 40,24 A 16,16 0 1 1 8,24 16,16 0 1 1 40,24 z"
     transform="matrix(0.37488028,0,0,0.37488028,-0.99712679,-0.99712679)" />
  <path
     sodipodi:type="arc"
     style="fill:#657b83;fill-opacity:1;stroke:none"
     id="path3908"
     sodipodi:cx="24"
     sodipodi:cy="24"
     sodipodi:rx="13"
     sodipodi:ry="13"
     d="m 37,24 a 13,13 0 1 1 -26,0 13,13 0 1 1 26,0 z"
     transform="matrix(0.37488028,0,0,0.37488028,-0.99712679,-0.99712679)" />
  <path
     style="fill:#fdf6e3;fill-opacity:0.25301208;stroke:none"
     d="M 7.9999999,7.9999999 8.3986775,12.848979 C 9.5496984,12.75497 10.619381,12.254848 11.42868,11.45352 L 7.9999999,7.9999999 z"
     id="path3912"
     inkscape:connector-curvature="0" />
  <path
     inkscape:connector-curvature="0"
     style="fill:#268bd2;fill-opacity:0.25301208;stroke:none"
     d="M 7.9999999,7.9999999 10.769754,12 c 0.949811,-0.656922 1.62612,-1.624884 1.926331,-2.7235038 L 7.9999999,7.9999999 z"
     id="path3912-4"
     inkscape:transform-center-x="-7.0441271"
     inkscape:transform-center-y="6" />
  <path
     sodipodi:type="arc"
     style="fill:none;stroke:#fdf6e3;stroke-width:2;stroke-miterlimit:4;stroke-opacity:0.1566265;stroke-dasharray:none"
     id="path3908-5"
     sodipodi:cx="24"
     sodipodi:cy="24"
     sodipodi:rx="13"
     sodipodi:ry="13"
     d="m 37,24 a 13,13 0 1 1 -26,0 13,13 0 1 1 26,0 z"
     transform="matrix(0.37488028,0,0,0.37488028,-0.99712679,-0.99712679)" />
  <path
     style="fill:#073642;fill-opacity:0.26104419;stroke:none"
     d="M 7.9999999,7.9999999 7.6013223,3.151021 C 6.4503015,3.2450264 5.3806196,3.7451522 4.5713194,4.5464794 l 3.4286805,3.4535205 z"
     id="path3912-9"
     inkscape:connector-curvature="0" />
  <path
     inkscape:connector-curvature="0"
     style="fill:#002b36;fill-opacity:0.14457834;stroke:none"
     d="M 7.9999999,7.9999999 5.2302453,4 C 4.2804348,4.6569214 3.604126,5.624884 3.3039151,6.7235037 l 4.6960848,1.2764962 z"
     id="path3912-4-3"
     inkscape:transform-center-x="7.0441273"
     inkscape:transform-center-y="-6" />
  <path
     sodipodi:type="arc"
     style="fill:#073642;fill-opacity:1;stroke:none"
     id="path3910"
     sodipodi:cx="23.5"
     sodipodi:cy="22.5"
     sodipodi:rx="3.5"
     sodipodi:ry="3.5"
     d="m 27,22.5 a 3.5,3.5 0 1 1 -7,0 3.5,3.5 0 1 1 7,0 z"
     transform="matrix(0.57142863,0,0,0.57142863,-5.4285729,-4.8571443)" />
</svg>

<svg xmlns="http://www.w3.org/2000/svg" viewBox="0 0 16 16">
 <path d="M 11 6 A 3 3 0 1 1 5 6 3 3 0 1 1 11 6 z" transform="matrix(0.49984036,0,0,0.49984036,7.7564376,8.7434111)" style="fill:#073642;fill-opacity:1;stroke:none"/>
 <path d="M 11 6 A 3 3 0 1 1 5 6 3 3 0 1 1 11 6 z" transform="matrix(0.49984036,0,0,0.49984036,7.7564376,1.233093)" style="fill:#073642;fill-opacity:1;stroke:none"/>
 <path d="M 11 6 A 3 3 0 1 1 5 6 3 3 0 1 1 11 6 z" transform="matrix(0.49984036,0,0,0.49984036,0.20799684,8.7434111)" style="fill:#073642;fill-opacity:1;stroke:none"/>
 <path d="M 11 6 A 3 3 0 1 1 5 6 3 3 0 1 1 11 6 z" transform="matrix(0.49984036,0,0,0.49984036,0.20799684,1.233093)" style="fill:#073642;fill-opacity:1;stroke:none"/>
 <path d="M 40 24 A 16 16 0 1 1 8 24 16 16 0 1 1 40 24 z" transform="matrix(0.37488028,0,0,0.37488028,-0.99712679,-0.99712679)" style="fill:#073642;fill-opacity:1;stroke:none"/>
 <path d="m 37 24 a 13 13 0 1 1 -26 0 13 13 0 1 1 26 0 z" transform="matrix(0.37488028,0,0,0.37488028,-0.99712679,-0.99712679)" style="fill:#657b83;fill-opacity:1;stroke:none"/>
 <path d="m 8 8 0.399 4.849 c 1.151 -0.094 2.221 -0.594 3.03 -1.395 l -3.429 -3.454 z" style="fill:#fdf6e3;fill-opacity:0.253;stroke:none"/>
 <path d="m 8 8 2.77 4 c 0.95 -0.657 1.626 -1.625 1.926 -2.724 l -4.696 -1.276 z" style="fill:#268bd2;fill-opacity:0.253;stroke:none"/>
 <path d="m 37 24 a 13 13 0 1 1 -26 0 13 13 0 1 1 26 0 z" transform="matrix(0.37488028,0,0,0.37488028,-0.99712679,-0.99712679)" style="stroke-dasharray:none;stroke-opacity:0.157;fill:none;stroke-miterlimit:4;stroke:#fdf6e3;stroke-width:2"/>
 <path d="m 8 8 -0.399 -4.849 c -1.151 0.094 -2.221 0.594 -3.03 1.395 l 3.429 3.454 z" style="fill:#073642;fill-opacity:0.261;stroke:none"/>
 <path d="m 8 8 -2.77 -4 c -0.95 0.657 -1.626 1.625 -1.926 2.724 l 4.696 1.276 z" style="fill:#002b36;fill-opacity:0.145;stroke:none"/>
 <path d="m 27 22.5 a 3.5 3.5 0 1 1 -7 0 3.5 3.5 0 1 1 7 0 z" transform="matrix(0.57142863,0,0,0.57142863,-5.4285729,-4.8571443)" style="fill:#073642;fill-opacity:1;stroke:none"/>
</svg>
